src/lib/packages/icons/src/assets/line/trash-check.svg

<svg xmlns="http://www.w3.org/2000/svg" width="24" height="24" fill="none"><path fill="currentColor" d="M21 5.25h-3.559c-.901 0-.939-.114-1.186-.854l-.202-.607a2.247 2.247 0 0 0-2.134-1.539h-3.838c-.97 0-1.828.618-2.134 1.539l-.202.607c-.247.741-.285.854-1.186.854H3a.75.75 0 0 0 0 1.5h1.298l.767 11.499c.148 2.225 1.512 3.501 3.742 3.501h6.387c2.229 0 3.593-1.276 3.742-3.501l.767-11.499H21a.75.75 0 0 0 0-1.5ZM9.37 4.263a.75.75 0 0 1 .711-.513h3.838c.323 0 .609.206.711.513l.202.607c.044.131.088.258.136.38H9.03c.048-.123.093-.25.137-.38l.203-.607Zm8.068 13.886c-.095 1.433-.809 2.101-2.245 2.101H8.806c-1.436 0-2.149-.667-2.245-2.101L5.801 6.75h.757c.125 0 .229-.013.341-.021.034.005.065.021.1.021h10c.036 0 .066-.016.1-.021.112.008.216.021.341.021h.757l-.759 11.399Zm-2.408-6.346a.75.75 0 0 1 0 1.061l-3.333 3.334a.75.75 0 0 1-1.06 0L8.97 14.531a.75.75 0 1 1 1.061-1.061l1.136 1.136 2.803-2.803a.749.749 0 0 1 1.06 0Z"/></svg>

<svg width="24" height="24" viewBox="0 0 24 24" fill="none" xmlns="http://www.w3.org/2000/svg">
<path d="M21 5.25H17.441C16.54 5.25 16.502 5.136 16.255 4.396L16.053 3.789C15.746 2.869 14.889 2.25 13.919 2.25H10.081C9.11099 2.25 8.25301 2.868 7.94701 3.789L7.745 4.396C7.49799 5.137 7.46001 5.25 6.55901 5.25H3C2.586 5.25 2.25 5.586 2.25 6C2.25 6.414 2.586 6.75 3 6.75H4.298L5.065 18.249C5.213 20.474 6.57701 21.75 8.80701 21.75H15.194C17.423 21.75 18.787 20.474 18.936 18.249L19.703 6.75H21C21.414 6.75 21.75 6.414 21.75 6C21.75 5.586 21.414 5.25 21 5.25ZM9.37 4.263C9.473 3.956 9.75799 3.75 10.081 3.75H13.919C14.242 3.75 14.528 3.956 14.63 4.263L14.832 4.87C14.876 5.001 14.92 5.128 14.968 5.25H9.03C9.078 5.127 9.12301 5 9.16701 4.87L9.37 4.263ZM17.438 18.149C17.343 19.582 16.629 20.25 15.193 20.25H8.806C7.37 20.25 6.657 19.583 6.561 18.149L5.80099 6.75H6.558C6.683 6.75 6.787 6.737 6.899 6.729C6.933 6.734 6.96399 6.75 6.99899 6.75H16.999C17.035 6.75 17.065 6.734 17.099 6.729C17.211 6.737 17.315 6.75 17.44 6.75H18.197L17.438 18.149ZM15.03 11.803C15.323 12.096 15.323 12.571 15.03 12.864L11.697 16.198C11.556 16.339 11.365 16.418 11.167 16.418C10.969 16.418 10.777 16.339 10.637 16.198L8.97 14.531C8.677 14.238 8.677 13.763 8.97 13.47C9.263 13.177 9.73801 13.177 10.031 13.47L11.167 14.606L13.97 11.803C14.263 11.51 14.737 11.51 15.03 11.803Z" fill="currentColor"/>
</svg>
